assets/Man zombie/Flat/man_zombie_flat.svg

<svg width="32" height="32" viewBox="0 0 32 32" fill="none" xmlns="http://www.w3.org/2000/svg">
<path d="M24.3827 7.74214C25.1866 8.91991 25.1249 10.7421 24.6249 10.9062C23.9605 11.1242 23.5469 10.4218 23.4453 10.8359C23.3437 11.25 23.0858 12.2812 22.9687 12.664C22.8517 13.0468 22.8358 13.4843 22.0936 13.5C21.3514 13.5156 10.0468 13.5 10.0468 13.5C10.0468 13.5 9.32028 13.664 9.09367 12.9531C8.86706 12.2421 7.99513 8.97975 8.53914 7.67964C9.02395 6.52102 10.1797 6.39835 10.3282 6.22652C10.4766 6.05468 9.42946 6.25781 9.12492 5.53906C8.80154 4.77586 10.5155 3.28906 11.7188 3.10937C13.6156 2.82611 14.7343 3.87487 16.078 4.12487C16.4562 4.19527 17.5578 3.70284 18.5546 3.89058C19.4049 4.05072 20.7343 5.41402 21.4921 6.11714C21.8851 6.48179 23.5789 6.56438 24.3827 7.74214Z" fill="#321B41"/>
<path d="M10 16.1719C11.1046 16.1719 12 15.2764 12 14.1719C12 13.0673 11.1046 12.1719 10 12.1719C8.89543 12.1719 8 13.0673 8 14.1719C8 15.2764 8.89543 16.1719 10 16.1719Z" fill="#00D1ED"/>
<path d="M22 16.1719C23.1046 16.1719 24 15.2764 24 14.1719C24 13.0673 23.1046 12.1719 22 12.1719C20.8954 12.1719 20 13.0673 20 14.1719C20 15.2764 20.8954 16.1719 22 16.1719Z" fill="#00D1ED"/>
<path d="M16.0001 20.5312C12.5594 20.5312 9.60938 21.6719 7.20312 23.8156V29.9062H24.7344V23.8156C22.3281 21.6719 19.4408 20.5312 16.0001 20.5312Z" fill="#1C1C1C"/>
<rect x="13.5" y="17" width="5" height="7.32812" rx="2.5" fill="#0074BA"/>
<path d="M10.6875 23.1719V25.875C10.6875 26.2656 10.7172 27.0156 11.6172 26.8906C12.4453 26.6875 14.157 26.4988 14.25 27.7344C14.3113 28.5481 13.5391 28.7031 12.5938 28.6406C12.0169 28.6025 11.6016 28.8672 11.1719 29.2656C10.7264 29.6787 9.76302 29.9062 9.41406 29.9062H6C5.32812 29.9062 4.78125 29.5 4.26562 28.7656C4.22387 28.699 4.17597 28.6217 4.12475 28.5391C3.90765 28.1888 3.63077 27.7421 3.50781 27.6016C3.42031 27.5016 2.98438 27.0781 2.78125 26.8906L3.22656 24.7969L4.26562 25.5781L4.5625 25.4062L4.98438 22.5781L6.25 24.375L6.53125 24.1875L7.64062 21.6875L8.26562 23.1094C8.33594 23.25 8.52656 23.3844 8.66406 23.1719C8.73438 23.0632 8.73438 22.4219 8.73438 22.0469L10.6875 23.1719Z" fill="#00A6ED"/>
<path d="M21.2925 23.1719V25.875C21.2925 26.2656 21.2628 27.0156 20.3628 26.8906C19.5347 26.6875 17.823 26.4988 17.73 27.7344C17.6687 28.5481 18.4409 28.7031 19.3862 28.6406C19.9631 28.6025 20.3784 28.8672 20.8081 29.2656C21.2536 29.6787 22.217 29.9062 22.5659 29.9062H25.98C26.6519 29.9062 27.1987 29.5 27.7144 28.7656C27.7561 28.699 27.804 28.6217 27.8552 28.5391C28.0723 28.1888 28.3492 27.7421 28.4722 27.6016C28.5597 27.5016 28.9956 27.0781 29.1987 26.8906L28.7534 24.7969L27.7144 25.5781L27.4175 25.4062L26.9956 22.5781L25.73 24.375L25.4487 24.1875L24.3394 21.6875L23.7144 23.1094C23.644 23.25 23.4534 23.3844 23.3159 23.1719C23.2456 23.0632 23.2456 22.4219 23.2456 22.0469L21.2925 23.1719Z" fill="#00A6ED"/>
<path d="M22.2629 20.8936C22.8074 20.8936 23.2489 21.335 23.2489 21.8795V23.5636C23.2489 24.1081 22.8074 24.5495 22.2629 24.5495C21.7184 24.5495 21.2769 24.1081 21.2769 23.5636V21.8795C21.2769 21.335 21.7184 20.8936 22.2629 20.8936Z" fill="#37C9CD"/>
<path d="M25.5253 21.1897C26.0455 21.353 26.3347 21.907 26.1714 22.4272L25.6623 24.0488C25.499 24.569 24.945 24.8582 24.4248 24.6949C23.9046 24.5316 23.6154 23.9776 23.7787 23.4574L24.2878 21.8358C24.4511 21.3156 25.0051 21.0264 25.5253 21.1897Z" fill="#37C9CD"/>
<path d="M28.2378 22.3558C28.7184 22.635 28.8816 23.2509 28.6024 23.7315L27.7679 25.1679C27.4887 25.6485 26.8728 25.8117 26.3922 25.5325C25.9116 25.2533 25.7483 24.6373 26.0275 24.1567L26.862 22.7204C27.1412 22.2398 27.7572 22.0765 28.2378 22.3558Z" fill="#37C9CD"/>
<path d="M30.0612 26.094C30.3517 25.6624 30.2373 25.077 29.8057 24.7865C29.374 24.4959 28.7886 24.6103 28.4981 25.042L28.0303 25.7369C27.7398 26.1686 27.8542 26.754 28.2858 27.0445C28.7175 27.3351 29.3029 27.2207 29.5934 26.789L30.0612 26.094Z" fill="#37C9CD"/>
<path d="M5.8087 22.4272C5.6454 21.907 5.93468 21.353 6.45484 21.1897C6.97499 21.0264 7.52904 21.3156 7.69235 21.8358L8.20146 23.4574C8.36477 23.9776 8.07548 24.5316 7.55533 24.6949C7.03517 24.8582 6.48112 24.569 6.31782 24.0488L5.8087 22.4272Z" fill="#37C9CD"/>
<path d="M3.74234 22.3558C3.26175 22.635 3.0985 23.2509 3.37771 23.7315L4.2122 25.1679C4.49142 25.6485 5.10737 25.8117 5.58797 25.5325C6.06857 25.2533 6.23182 24.6373 5.9526 24.1567L5.11811 22.7204C4.83889 22.2398 4.22294 22.0765 3.74234 22.3558Z" fill="#37C9CD"/>
<path d="M1.91894 26.094C1.62842 25.6624 1.74281 25.077 2.17445 24.7865C2.60609 24.4959 3.19152 24.6103 3.48204 25.042L3.94982 25.7369C4.24035 26.1686 4.12595 26.754 3.69432 27.0445C3.26268 27.3351 2.67725 27.2207 2.38672 26.789L1.91894 26.094Z" fill="#37C9CD"/>
<path d="M9.71724 20.8936C9.17271 20.8936 8.73128 21.335 8.73128 21.8795V23.5636C8.73128 24.1081 9.17271 24.5495 9.71724 24.5495C10.2618 24.5495 10.7032 24.1081 10.7032 23.5636V21.8795C10.7032 21.335 10.2618 20.8936 9.71724 20.8936Z" fill="#37C9CD"/>
<path d="M9.99926 17.6615C9.85875 16.0834 9.71875 12.078 9.71875 12.078C9.71875 11.0468 10.2599 10.9144 10.5391 10.2577C10.7806 9.6897 10.7656 8.98221 10.7656 8.73038C10.7656 7.91397 11.5662 7.87798 12.0156 7.79683C14.2656 7.39054 17.1719 7.21884 20.1875 7.79683C20.5012 7.85696 21.1684 8.16997 21.2031 8.70303C21.25 9.42178 21.3336 10.3409 21.6328 10.578C22.3131 11.1171 22.2805 11.7774 22.2657 12.0759L22.2656 12.078C22.1823 13.7655 22.068 16.4615 21.968 17.6615C21.859 18.9693 21.5938 21.3593 18.8516 21.8437C17.9718 21.9991 14.593 22.1249 13.1243 21.8437C10.5903 21.3584 10.1398 19.2397 9.99926 17.6615Z" fill="#37C9CD"/>
<path d="M16.8706 13.3272C17.0538 12.4792 17.8082 11.8438 18.711 11.8438C19.6138 11.8438 20.3682 12.4792 20.5513 13.3272H16.8706Z" fill="#37C9CD"/>
<path d="M13.375 15.5938C14.4105 15.5938 15.25 14.7543 15.25 13.7188C15.25 12.6832 14.4105 11.8438 13.375 11.8438C12.3395 11.8438 11.5 12.6832 11.5 13.7188C11.5 14.7543 12.3395 15.5938 13.375 15.5938Z" fill="#321B41"/>
<path d="M18.875 15.75C19.9105 15.75 20.75 14.9105 20.75 13.875C20.75 13.7385 20.7354 13.6055 20.7077 13.4773C20.5253 12.6328 19.7741 12 18.875 12C17.8395 12 17 12.8395 17 13.875C17 14.9105 17.8395 15.75 18.875 15.75Z" fill="#321B41"/>
<path d="M13.6094 15.1875C14.5068 15.1875 15.2344 14.46 15.2344 13.5625C15.2344 12.665 14.5068 11.9375 13.6094 11.9375C12.7119 11.9375 11.9844 12.665 11.9844 13.5625C11.9844 14.46 12.7119 15.1875 13.6094 15.1875Z" fill="#FFCE7C"/>
<path d="M18.625 15.1875C19.5225 15.1875 20.25 14.46 20.25 13.5625C20.25 12.665 19.5225 11.9375 18.625 11.9375C17.7275 11.9375 17 12.665 17 13.5625C17 14.46 17.7275 15.1875 18.625 15.1875Z" fill="#FFCE7C"/>
<path d="M13.5312 14.1172C13.8764 14.1172 14.1562 13.8374 14.1562 13.4922C14.1562 13.147 13.8764 12.8672 13.5312 12.8672C13.1861 12.8672 12.9062 13.147 12.9062 13.4922C12.9062 13.8374 13.1861 14.1172 13.5312 14.1172Z" fill="#990838"/>
<path d="M18.457 14.1172C18.8022 14.1172 19.082 13.8374 19.082 13.4922C19.082 13.147 18.8022 12.8672 18.457 12.8672C18.1119 12.8672 17.832 13.147 17.832 13.4922C17.832 13.8374 18.1119 14.1172 18.457 14.1172Z" fill="#990838"/>
<path d="M14.0469 19.875H16.8906C16.8906 17.775 15.0312 17.5625 14.0469 17.5625C13.5312 17.5625 12.8906 17.8219 12.8906 18.7344C12.8906 19.6469 13.6615 19.875 14.0469 19.875Z" fill="black"/>
<path d="M17 13.3272C17 12.5 17.9376 11.8438 18.8404 11.8438C19.7432 11.8438 20.4976 12.4792 20.6807 13.3272H17Z" fill="#37C9CD"/>
<path d="M16.4406 18.4219H14.5C14.2239 18.4219 14 18.198 14 17.9219V17.5632C14.0157 17.5627 14.0314 17.5625 14.0469 17.5625C14.7278 17.5625 15.8273 17.6642 16.4406 18.4219Z" fill="#FFCE7C"/>
<path d="M15.5008 13.6123L14.8325 15.8603C14.6883 16.318 15.029 16.7891 15.5008 16.7891H16.5097C16.9815 16.7891 17.3222 16.318 17.178 15.8603L16.4966 13.6123C16.3394 13.1143 15.658 13.1143 15.5008 13.6123Z" fill="#00A6ED"/>
<path d="M14.0469 19.875H16.8906C16.8906 17.775 15.0312 17.5625 14.0469 17.5625C13.5312 17.5625 12.8906 17.8219 12.8906 18.7344C12.8906 19.6469 13.6615 19.875 14.0469 19.875Z" fill="black"/>
<path d="M16.4406 18.4219H14.5C14.2239 18.4219 14 18.198 14 17.9219V17.5632C14.0157 17.5627 14.0314 17.5625 14.0469 17.5625C14.7278 17.5625 15.8273 17.6642 16.4406 18.4219Z" fill="#FFCE7C"/>
<path d="M15.4772 13.6182L14.7846 15.8344C14.6352 16.2855 14.9883 16.75 15.4772 16.75H16.5228C17.0117 16.75 17.3648 16.2855 17.2154 15.8344L16.5092 13.6182C16.3463 13.1273 15.6401 13.1273 15.4772 13.6182Z" fill="#00A6ED"/>
<path d="M22.0876 15.7479C22.0784 15.9212 22.0693 16.0905 22.0602 16.254C21.7442 16.2946 21.375 16.4102 21.0554 16.7128C20.6337 17.1121 20.2507 17.8829 20.2507 19.3906C20.2507 19.5287 20.1388 19.6406 20.0007 19.6406C19.8627 19.6406 19.7507 19.5287 19.7507 19.3906C19.7507 17.8046 20.1542 16.8775 20.7117 16.3497C21.1641 15.9214 21.6864 15.7863 22.0876 15.7479Z" fill="#00A6ED"/>
<path d="M9.90361 16.2574C9.8943 16.0923 9.88516 15.9226 9.87622 15.7505C10.2738 15.7922 10.7837 15.9304 11.2266 16.3497C11.784 16.8775 12.1875 17.8046 12.1875 19.3906C12.1875 19.5287 12.0756 19.6406 11.9375 19.6406C11.7994 19.6406 11.6875 19.5287 11.6875 19.3906C11.6875 17.8829 11.3045 17.1121 10.8828 16.7128C10.5718 16.4184 10.2138 16.301 9.90361 16.2574Z" fill="#00A6ED"/>
<path d="M20.4951 11.681C20.7047 11.4097 20.6543 11.0196 20.383 10.81L20.3817 10.809L20.3797 10.8074L20.3747 10.8036L20.3612 10.7937C20.3507 10.786 20.3371 10.7763 20.3205 10.7649C20.2873 10.742 20.2419 10.7123 20.185 10.6785C20.0716 10.611 19.9109 10.5261 19.7092 10.4472C19.306 10.2894 18.7293 10.1521 18.0406 10.2364C17.7004 10.2781 17.4583 10.5877 17.5 10.9279C17.5417 11.2682 17.8513 11.5102 18.1915 11.4686C18.6309 11.4148 18.9981 11.5019 19.2569 11.6032C19.3861 11.6538 19.4858 11.707 19.5502 11.7452C19.5822 11.7643 19.6049 11.7793 19.6177 11.7881L19.6289 11.796C19.8999 12.0016 20.2866 11.9507 20.4951 11.681Z" fill="#321B41"/>
<path d="M11.5513 10.8103C11.28 11.0199 11.23 11.4097 11.4396 11.681C11.6481 11.9508 12.0348 12.0017 12.3058 11.796L12.3171 11.7881C12.3298 11.7794 12.3526 11.7643 12.3846 11.7453C12.4489 11.707 12.5486 11.6538 12.6778 11.6032C12.9366 11.502 13.3038 11.4148 13.7432 11.4686C14.0834 11.5103 14.3931 11.2682 14.4347 10.928C14.4764 10.5877 14.2343 10.2781 13.8941 10.2365C13.2054 10.1521 12.6287 10.2894 12.2255 10.4472C12.0238 10.5261 11.8631 10.611 11.7497 10.6785C11.6928 10.7124 11.6474 10.7421 11.6142 10.7649C11.5976 10.7763 11.584 10.786 11.5735 10.7937L11.56 10.8037L11.5551 10.8074L11.553 10.809L11.5513 10.8103Z" fill="#321B41"/>
</svg>

<svg xmlns="http://www.w3.org/2000/svg" width="32" height="32" fill="none"><path fill="#321B41" d="M24.383 7.742c.804 1.178.742 3 .242 3.164-.665.218-1.078-.484-1.18-.07-.101.414-.36 1.445-.476 1.828-.117.383-.133.82-.875.836-.743.016-12.047 0-12.047 0s-.727.164-.953-.547c-.227-.71-1.099-3.973-.555-5.273.485-1.159 1.64-1.282 1.79-1.453.148-.172-.9.03-1.204-.688-.323-.763 1.39-2.25 2.594-2.43 1.897-.283 3.015.766 4.359 1.016.378.07 1.48-.422 2.477-.234.85.16 2.18 1.523 2.937 2.226.393.365 2.087.447 2.89 1.625Z"/><path fill="#00D1ED" d="M10 16.172a2 2 0 1 0 0-4 2 2 0 0 0 0 4ZM22 16.172a2 2 0 1 0 0-4 2 2 0 0 0 0 4Z"/><path fill="#1C1C1C" d="M16 20.531c-3.44 0-6.39 1.14-8.797 3.285v6.09h17.531v-6.09C22.328 21.672 19.441 20.53 16 20.53Z"/><rect width="5" height="7.328" x="13.5" y="17" fill="#0074BA" rx="2.5"/><path fill="#00A6ED" d="M10.688 23.172v2.703c0 .39.03 1.14.93 1.016.827-.203 2.539-.392 2.632.843.061.814-.71.97-1.656.907-.577-.038-.992.226-1.422.625-.446.413-1.409.64-1.758.64H6c-.672 0-1.219-.406-1.734-1.14l-.141-.227c-.217-.35-.494-.797-.617-.937a18.58 18.58 0 0 0-.727-.711l.446-2.094 1.039.781.296-.172.422-2.828 1.266 1.797.281-.188 1.11-2.5.625 1.422c.07.141.26.275.398.063.07-.109.07-.75.07-1.125l1.954 1.125ZM21.293 23.172v2.703c0 .39-.03 1.14-.93 1.016-.828-.203-2.54-.392-2.633.843-.061.814.71.97 1.656.907.577-.038.992.226 1.422.625.446.413 1.409.64 1.758.64h3.414c.672 0 1.219-.406 1.734-1.14l.141-.227c.217-.35.494-.797.617-.937.088-.1.524-.524.727-.711l-.446-2.094-1.039.781-.296-.172-.422-2.828-1.266 1.797-.281-.188-1.11-2.5-.625 1.422c-.07.141-.26.275-.398.063-.07-.109-.07-.75-.07-1.125l-1.953 1.125Z"/><path fill="#37C9CD" d="M22.263 20.894c.544 0 .986.441.986.986v1.684a.986.986 0 0 1-1.972 0V21.88c0-.545.441-.986.986-.986ZM25.525 21.19c.52.163.81.717.646 1.237l-.509 1.622a.987.987 0 1 1-1.883-.592l.509-1.621a.987.987 0 0 1 1.237-.646ZM28.238 22.356c.48.279.644.895.364 1.375l-.834 1.437a1.006 1.006 0 1 1-1.74-1.011l.834-1.437c.28-.48.895-.643 1.376-.364ZM30.061 26.094a.942.942 0 1 0-1.563-1.052l-.468.695a.942.942 0 0 0 1.563 1.052l.468-.695ZM5.809 22.427a.987.987 0 1 1 1.883-.591l.51 1.621a.987.987 0 1 1-1.884.592l-.51-1.622ZM3.742 22.356c-.48.279-.643.895-.364 1.375l.834 1.437a1.006 1.006 0 0 0 1.74-1.011l-.834-1.437a1.006 1.006 0 0 0-1.376-.364ZM1.919 26.094a.942.942 0 1 1 1.563-1.052l.468.695a.942.942 0 1 1-1.563 1.052l-.468-.695ZM9.717 20.894a.986.986 0 0 0-.986.986v1.684a.986.986 0 0 0 1.972 0V21.88a.986.986 0 0 0-.986-.986ZM10 17.662c-.141-1.579-.281-5.584-.281-5.584 0-1.031.54-1.164.82-1.82.242-.568.227-1.276.227-1.528 0-.816.8-.852 1.25-.933 2.25-.406 5.156-.578 8.171 0 .314.06.981.373 1.016.906.047.719.13 1.638.43 1.875.68.54.648 1.2.633 1.498v.002c-.084 1.688-.198 4.384-.298 5.584-.109 1.307-.374 3.697-3.116 4.182-.88.155-4.259.28-5.728 0C10.59 21.358 10.14 19.24 10 17.66Z"/><path fill="#37C9CD" d="M16.87 13.327a1.884 1.884 0 0 1 3.681 0h-3.68Z"/><path fill="#321B41" d="M13.375 15.594a1.875 1.875 0 1 0 0-3.75 1.875 1.875 0 0 0 0 3.75ZM18.875 15.75a1.875 1.875 0 1 0 0-3.75 1.875 1.875 0 0 0 0 3.75Z"/><path fill="#FFCE7C" d="M13.61 15.188a1.625 1.625 0 1 0 0-3.25 1.625 1.625 0 0 0 0 3.25ZM18.625 15.188a1.625 1.625 0 1 0 0-3.25 1.625 1.625 0 0 0 0 3.25Z"/><path fill="#990838" d="M13.531 14.117a.625.625 0 1 0 0-1.25.625.625 0 0 0 0 1.25ZM18.457 14.117a.625.625 0 1 0 0-1.25.625.625 0 0 0 0 1.25Z"/><path fill="#000" d="M14.047 19.875h2.844c0-2.1-1.86-2.313-2.844-2.313-.516 0-1.156.26-1.156 1.172 0 .913.77 1.141 1.156 1.141Z"/><path fill="#37C9CD" d="M17 13.327c0-.827.938-1.483 1.84-1.483.903 0 1.658.635 1.84 1.483H17Z"/><path fill="#FFCE7C" d="M16.44 18.422H14.5a.5.5 0 0 1-.5-.5v-.359h.047c.68 0 1.78.101 2.394.859Z"/><path fill="#00A6ED" d="m15.5 13.612-.668 2.248a.713.713 0 0 0 .669.93h1.009a.713.713 0 0 0 .668-.93l-.681-2.248a.519.519 0 0 0-.996 0Z"/><path fill="#000" d="M14.047 19.875h2.844c0-2.1-1.86-2.313-2.844-2.313-.516 0-1.156.26-1.156 1.172 0 .913.77 1.141 1.156 1.141Z"/><path fill="#FFCE7C" d="M16.44 18.422H14.5a.5.5 0 0 1-.5-.5v-.359h.047c.68 0 1.78.101 2.394.859Z"/><path fill="#00A6ED" d="m15.477 13.618-.692 2.216c-.15.451.203.916.692.916h1.046c.489 0 .842-.465.692-.916l-.706-2.216c-.163-.49-.869-.49-1.032 0ZM22.088 15.748l-.028.506c-.316.04-.685.156-1.005.459-.421.4-.804 1.17-.804 2.678a.25.25 0 1 1-.5 0c0-1.586.403-2.513.96-3.041a2.274 2.274 0 0 1 1.377-.602ZM9.904 16.257l-.028-.507c.398.042.908.18 1.35.6.558.527.961 1.455.961 3.04a.25.25 0 1 1-.5 0c0-1.507-.382-2.278-.804-2.677a1.746 1.746 0 0 0-.98-.456Z"/><path fill="#321B41" d="M20.495 11.681a.621.621 0 0 0-.112-.871l-.001-.001-.002-.002-.005-.003-.014-.01a2.39 2.39 0 0 0-.176-.115 3.426 3.426 0 0 0-2.144-.442.62.62 0 0 0 .15 1.232 2.185 2.185 0 0 1 1.36.276l.067.043.01.008a.62.62 0 0 0 .867-.115ZM11.551 10.81a.62.62 0 0 0 .755.986l.011-.008a2.012 2.012 0 0 1 .36-.185 2.186 2.186 0 0 1 1.066-.134.62.62 0 1 0 .151-1.232 3.425 3.425 0 0 0-2.144.441 2.508 2.508 0 0 0-.177.116l-.013.01-.005.003-.002.002-.002.001Z"/></svg>
